; generated by Slic3r 1.3.0 on 2021-04-13 at 11:11:50

; external perimeters extrusion width = 0.44mm (3.38mm^3/s)
; perimeters extrusion width = 0.48mm (7.54mm^3/s)
; infill extrusion width = 0.48mm (10.05mm^3/s)
; solid infill extrusion width = 0.48mm (2.51mm^3/s)
; top infill extrusion width = 0.48mm (1.88mm^3/s)
; support material extrusion width = 0.44mm (6.76mm^3/s)

M107
M190 S60 ; set bed temperature and wait for it to be reached
M104 S205 ; set temperature
G28 ; home all axes
G1 Z5 F5000 ; lift nozzle

; Filament gcode

M109 S205 ; set temperature and wait for it to be reached
G21 ; set units to millimeters
G90 ; use absolute coordinates
M82 ; use absolute distances for extrusion
G92 E0
G1 Z0.400 F7800.000
G1 E-2.00000 F2400.00000
G92 E0
G1 X89.762 Y88.582 F7800.000
G1 E2.00000 F2400.00000
G1 F1800
G1 X91.699 Y87.324 E2.27422
G1 X94.333 Y86.786 E2.59362
G1 X124.948 Y86.786 E6.22962
G1 X126.246 Y86.912 E6.38443
G1 X127.431 Y87.146 E6.52790
G1 X129.586 Y87.975 E6.80213
G1 X131.333 Y89.485 E7.07635
G1 X132.465 Y91.497 E7.35058
G1 X132.848 Y93.733 E7.62000
G1 X132.848 Y122.103 E10.98933
G1 X132.833 Y123.333 E11.13540
G1 X132.793 Y124.018 E11.21692
G1 X132.628 Y125.058 E11.34200
G1 X132.513 Y125.537 E11.40048
G1 X132.173 Y126.574 E11.53005
G1 X131.757 Y127.410 E11.64105
G1 X131.122 Y128.488 E11.78960
G1 X130.441 Y129.443 E11.92885
G1 X129.580 Y130.325 E12.07527
G1 X129.205 Y130.644 E12.13375
G1 X128.262 Y131.320 E12.27155
G1 X127.411 Y131.761 E12.38535
G1 X126.354 Y132.216 E12.52205
G1 X125.264 Y132.579 E12.65845
G1 X125.059 Y132.628 E12.68358
G1 X124.018 Y132.793 E12.80873
G1 X123.586 Y132.827 E12.86020
G1 X123.059 Y132.848 E12.92282
G1 X97.214 Y132.848 E15.99230
G1 X96.313 Y132.787 E16.09953
G1 X95.089 Y132.621 E16.24626
G1 X93.420 Y132.171 E16.45152
G1 X93.058 Y132.021 E16.49805
G1 X92.377 Y131.693 E16.58793
G1 X91.765 Y131.336 E16.67200
G1 X90.596 Y130.428 E16.84783
G1 X89.750 Y129.607 E16.98785
G1 X88.703 Y128.298 E17.18690
G1 X88.479 Y127.933 E17.23778
G1 X88.001 Y126.994 E17.36289
G1 X87.867 Y126.672 E17.40425
G1 X87.461 Y125.283 E17.57615
G1 X87.257 Y124.140 E17.71407
G1 X87.152 Y122.960 E17.85479
G1 X87.152 Y94.406 E21.24605
G1 X87.899 Y91.327 E21.62227
G1 X88.367 Y90.422 E21.74329
G1 X89.726 Y88.630 E22.01039
G1 E20.01039 F2400.00000
G92 E0
G1 X111.443 Y109.500 F7800.000
G1 E2.00000 F2400.00000
G1 F1800
G1 X112.221 Y109.892 E2.10352
G1 X112.799 Y110.320 E2.18886
G1 X113.296 Y110.838 E2.27421
G1 X113.699 Y111.434 E2.35955
G1 X113.995 Y112.089 E2.44489
G1 X114.176 Y112.784 E2.53023
G1 X114.237 Y113.500 E2.61557
G1 X114.176 Y114.216 E2.70091
G1 X113.995 Y114.911 E2.78626
G1 X113.699 Y115.566 E2.87160
G1 X113.296 Y116.162 E2.95694
G1 X112.799 Y116.680 E3.04228
G1 X112.221 Y117.108 E3.12762
G1 X111.580 Y117.431 E3.21297
G1 X110.893 Y117.641 E3.29831
G1 X110.180 Y117.733 E3.38365
G1 X109.450 Y117.702 E3.47043
G1 X108.716 Y117.534 E3.55981
G1 X108.093 Y117.283 E3.63962
G1 X107.481 Y116.906 E3.72496
G1 X106.941 Y116.431 E3.81031
G1 X106.490 Y115.872 E3.89565
G1 X106.140 Y115.245 E3.98099
G1 X105.900 Y114.568 E4.06633
G1 X105.779 Y113.859 E4.15167
G1 X105.779 Y113.129 E4.23846
G1 X105.916 Y112.389 E4.32783
G1 X106.140 Y111.755 E4.40765
G1 X106.490 Y111.128 E4.49299
G1 X106.941 Y110.569 E4.57833
G1 X107.481 Y110.094 E4.66367
G1 X108.093 Y109.717 E4.74901
G1 X108.633 Y109.500 E4.81815
G1 X108.081 Y109.278 E4.88872
G1 X107.446 Y108.875 E4.97810
G1 X106.941 Y108.431 E5.05792
G1 X106.490 Y107.873 E5.14322
G1 X106.140 Y107.246 E5.22846
G1 X105.900 Y106.568 E5.31394
G1 X105.779 Y105.859 E5.39928
G1 X105.779 Y105.141 E5.48462
G1 X105.900 Y104.432 E5.56997
G1 X106.139 Y103.755 E5.65531
G1 X106.490 Y103.128 E5.74065
G1 X106.941 Y102.569 E5.82599
G1 X107.481 Y102.094 E5.91133
G1 X108.093 Y101.717 E5.99667
G1 X108.771 Y101.445 E6.08346
G1 X109.508 Y101.296 E6.17283
G1 X110.180 Y101.267 E6.25265
G1 X110.893 Y101.359 E6.33799
G1 X111.580 Y101.569 E6.42333
G1 X112.221 Y101.892 E6.50867
G1 X112.799 Y102.320 E6.59402
G1 X113.296 Y102.838 E6.67936
G1 X113.699 Y103.434 E6.76470
G1 X113.995 Y104.089 E6.85004
G1 X114.176 Y104.784 E6.93538
G1 X114.237 Y105.500 E7.02072
G1 X114.176 Y106.216 E7.10607
G1 X113.995 Y106.911 E7.19141
G1 X113.699 Y107.566 E7.27675
G1 X113.296 Y108.162 E7.36209
G1 X112.799 Y108.680 E7.44743
G1 X112.221 Y109.108 E7.53277
G1 X111.497 Y109.473 E7.62917
G1 X111.226 Y110.208 F7800.000
G1 F1800
G1 X111.312 Y110.234 E7.63987
G1 X111.845 Y110.503 E7.71078
G1 X112.325 Y110.858 E7.78168
G1 X112.739 Y111.289 E7.85258
G1 X113.073 Y111.783 E7.92349
G1 X113.319 Y112.327 E7.99439
G1 X113.469 Y112.905 E8.06529
G1 X113.520 Y113.500 E8.13620
G1 X113.469 Y114.095 E8.20710
G1 X113.319 Y114.673 E8.27801
G1 X113.073 Y115.217 E8.34891
G1 X112.739 Y115.711 E8.41981
G1 X112.325 Y116.142 E8.49072
G1 X111.845 Y116.497 E8.56162
G1 X111.312 Y116.766 E8.63252
G1 X110.742 Y116.941 E8.70343
G1 X110.149 Y117.017 E8.77433
G1 X109.546 Y116.991 E8.84611
G1 X108.931 Y116.850 E8.92105
G1 X108.415 Y116.643 E8.98699
G1 X107.907 Y116.330 E9.05789
G1 X107.459 Y115.936 E9.12880
G1 X107.084 Y115.471 E9.19970
G1 X106.793 Y114.950 E9.27060
G1 X106.594 Y114.387 E9.34151
G1 X106.493 Y113.799 E9.41241
G1 X106.493 Y113.194 E9.48419
G1 X106.608 Y112.574 E9.55913
G1 X106.793 Y112.050 E9.62507
G1 X107.084 Y111.529 E9.69597
G1 X107.459 Y111.064 E9.76688
G1 X107.907 Y110.670 E9.83778
G1 X108.415 Y110.357 E9.90869
G1 X108.976 Y110.132 E9.98047
G1 X109.595 Y110.007 E10.05541
G1 X110.149 Y109.983 E10.12134
G1 X110.742 Y110.059 E10.19225
G1 X111.169 Y110.190 E10.24532
G1 X111.017 Y110.890 F7800.000
G1 F1800
G1 X111.470 Y111.113 E10.30523
G1 X111.852 Y111.396 E10.36169
G1 X112.181 Y111.739 E10.41816
G1 X112.447 Y112.133 E10.47462
G1 X112.643 Y112.566 E10.53109
G1 X112.763 Y113.026 E10.58755
G1 X112.803 Y113.500 E10.64402
G1 X112.763 Y113.974 E10.70048
G1 X112.643 Y114.434 E10.75695
G1 X112.447 Y114.867 E10.81342
G1 X112.181 Y115.261 E10.86988
G1 X111.852 Y115.604 E10.92635
G1 X111.470 Y115.887 E10.98281
G1 X111.045 Y116.101 E11.03928
G1 X110.591 Y116.240 E11.09574
G1 X110.119 Y116.301 E11.15221
G1 X109.641 Y116.280 E11.20899
G1 X109.145 Y116.166 E11.26949
G1 X108.738 Y116.003 E11.32155
G1 X108.333 Y115.754 E11.37802
G1 X107.976 Y115.440 E11.43448
G1 X107.678 Y115.070 E11.49095
G1 X107.446 Y114.655 E11.54742
G1 X107.287 Y114.206 E11.60388
G1 X107.207 Y113.738 E11.66035
G1 X107.207 Y113.260 E11.71713
G1 X107.300 Y112.759 E11.77763
G1 X107.446 Y112.345 E11.82969
G1 X107.678 Y111.930 E11.88616
G1 X107.976 Y111.560 E11.94262
G1 X108.333 Y111.246 E11.99909
G1 X108.738 Y110.997 E12.05555
G1 X109.182 Y110.819 E12.11233
G1 X109.681 Y110.718 E12.17283
G1 X110.119 Y110.699 E12.22490
G1 X110.591 Y110.760 E12.28136
G1 X110.960 Y110.873 E12.32722
G1 X111.038 Y110.870 F7800.000
G1 X110.742 Y108.941 F7800.000
G1 F1800
G1 X110.149 Y109.017 E12.39812
G1 X109.553 Y108.991 E12.46903
G1 X108.969 Y108.866 E12.53993
G1 X108.408 Y108.640 E12.61171
G1 X107.876 Y108.302 E12.68665
G1 X107.459 Y107.936 E12.75259
G1 X107.084 Y107.471 E12.82347
G1 X106.793 Y106.951 E12.89427
G1 X106.594 Y106.387 E12.96530
G1 X106.493 Y105.799 E13.03621
G1 X106.493 Y105.201 E13.10711
G1 X106.594 Y104.613 E13.17801
G1 X106.793 Y104.050 E13.24892
G1 X107.084 Y103.529 E13.31982
G1 X107.459 Y103.064 E13.39073
G1 X107.907 Y102.670 E13.46163
G1 X108.415 Y102.357 E13.53253
G1 X108.976 Y102.132 E13.60431
G1 X109.595 Y102.007 E13.67925
G1 X110.149 Y101.983 E13.74519
G1 X110.742 Y102.059 E13.81609
G1 X111.312 Y102.234 E13.88700
G1 X111.845 Y102.503 E13.95790
G1 X112.325 Y102.858 E14.02881
G1 X112.739 Y103.289 E14.09971
G1 X113.073 Y103.783 E14.17061
G1 X113.319 Y104.327 E14.24152
G1 X113.469 Y104.905 E14.31242
G1 X113.520 Y105.500 E14.38332
G1 X113.469 Y106.095 E14.45423
G1 X113.319 Y106.673 E14.52513
G1 X113.073 Y107.217 E14.59603
G1 X112.739 Y107.711 E14.66694
G1 X112.325 Y108.142 E14.73784
G1 X111.845 Y108.497 E14.80875
G1 X111.312 Y108.766 E14.87965
G1 X110.799 Y108.923 E14.94343
G1 X110.591 Y108.240 F7800.000
G1 F1800
G1 X110.119 Y108.301 E14.99989
G1 X109.644 Y108.280 E15.05636
G1 X109.179 Y108.180 E15.11282
G1 X108.736 Y108.002 E15.16961
G1 X108.305 Y107.729 E15.23010
G1 X107.976 Y107.440 E15.28217
G1 X107.678 Y107.070 E15.33862
G1 X107.446 Y106.656 E15.39499
G1 X107.287 Y106.206 E15.45157
G1 X107.207 Y105.738 E15.50803
G1 X107.207 Y105.262 E15.56450
G1 X107.287 Y104.794 E15.62096
G1 X107.446 Y104.345 E15.67743
G1 X107.678 Y103.930 E15.73389
G1 X107.976 Y103.560 E15.79036
G1 X108.333 Y103.246 E15.84683
G1 X108.738 Y102.997 E15.90329
G1 X109.182 Y102.819 E15.96007
G1 X109.681 Y102.718 E16.02057
G1 X110.119 Y102.699 E16.07264
G1 X110.591 Y102.760 E16.12910
G1 X111.045 Y102.899 E16.18557
G1 X111.470 Y103.113 E16.24203
G1 X111.852 Y103.396 E16.29850
G1 X112.181 Y103.739 E16.35496
G1 X112.447 Y104.133 E16.41143
G1 X112.643 Y104.566 E16.46789
G1 X112.763 Y105.026 E16.52436
G1 X112.803 Y105.500 E16.58083
G1 X112.763 Y105.974 E16.63729
G1 X112.643 Y106.434 E16.69376
G1 X112.447 Y106.867 E16.75022
G1 X112.181 Y107.261 E16.80669
G1 X111.852 Y107.604 E16.86315
G1 X111.470 Y107.887 E16.91962
G1 X111.045 Y108.101 E16.97609
G1 X110.648 Y108.223 E17.02543
G1 X110.591 Y108.240 F7800.000
G1 E15.02543 F2400.00000
G92 E0
G1 X122.036 Y96.828 F7800.000
G1 E2.00000 F2400.00000
G1 F1800
G1 X122.036 Y122.036 E4.99382
G1 X97.964 Y122.036 E7.85280
G1 X97.964 Y96.828 E10.84662
G1 X121.976 Y96.828 E13.69846
G1 X122.750 Y96.114 F7800.000
G1 F1800
G1 X122.750 Y122.750 E16.86192
G1 X97.250 Y122.750 E19.89053
G1 X97.250 Y96.114 E23.05399
G1 X122.690 Y96.114 E26.07547
G1 X123.465 Y95.400 F7800.000
G1 F1800
G1 X123.465 Y122.984 E29.35152
G1 X123.409 Y123.209 E29.37896
G1 X123.325 Y123.325 E29.39603
G1 X123.148 Y123.437 E29.42096
G1 X122.969 Y123.465 E29.44237
G1 X97.031 Y123.465 E32.52289
G1 X96.821 Y123.431 E32.54816
G1 X96.675 Y123.325 E32.56964
G1 X96.569 Y123.179 E32.59112
G1 X96.535 Y122.969 E32.61638
G1 X96.535 Y95.400 E35.89056
G1 X123.405 Y95.400 E39.08168
G1 X123.363 Y95.787 F7800.000
G1 E37.08168 F2400.00000
G92 E0
G1 X110.485 Y109.500 F7800.000
G1 E2.00000 F2400.00000
G1 F1800
G1 X110.181 Y109.500 E2.01234
G1 X110.181 Y109.500 F7800.000
G1 F1800
G1 X109.734 Y109.500 E2.02473
G1 E0.02473 F2400.00000
G92 E0
G1 X105.712 Y102.888 F7800.000
G1 E2.00000 F2400.00000
G1 F1800
G1 X106.146 Y102.350 E2.08391
G1 X106.777 Y101.795 E2.18582
G1 X106.850 Y101.750 E2.19621
G1 X111.335 Y97.265 E2.96578
G1 X112.367 Y97.265 E3.09093
G1 X108.675 Y100.957 E3.72441
G1 X109.144 Y100.862 E3.78253
G1 X109.830 Y100.833 E3.86581
G1 X113.399 Y97.265 E4.47803
G1 X114.430 Y97.265 E4.60318
G1 X110.760 Y100.935 E5.23284
G1 X111.551 Y101.176 E5.33311
G1 X115.462 Y97.265 E6.00413
G1 X116.494 Y97.265 E6.12928
G1 X112.239 Y101.519 E6.85921
G1 X112.319 Y101.560 E6.87012
G1 X112.843 Y101.947 E6.94912
G1 X117.525 Y97.265 E7.75244
G1 X118.557 Y97.265 E7.87759
G1 X113.370 Y102.451 E8.76740
G1 X113.576 Y102.666 E8.80348
G1 X113.823 Y103.031 E8.85687
G1 X119.589 Y97.265 E9.84609
G1 X120.620 Y97.265 E9.97123
G1 X114.195 Y103.690 E11.07357
G1 X114.393 Y104.128 E11.13182
G1 X114.474 Y104.442 E11.17124
G1 X121.600 Y97.317 E12.39368
G1 X121.600 Y98.348 E12.51882
G1 X114.636 Y105.312 E13.71356
G1 X114.676 Y105.778 E13.77024
G1 X114.627 Y106.353 E13.84030
G1 X121.600 Y99.380 E15.03664
G1 X121.600 Y100.412 E15.16179
G1 X114.235 Y107.776 E16.42529
G1 X114.047 Y108.193 E16.48083
G1 X113.576 Y108.890 E16.58275
G1 X112.995 Y109.496 E16.68467
G1 X112.614 Y109.778 E16.74214
G1 X112.988 Y110.055 E16.79864
G1 X121.600 Y101.443 E18.27604
G1 X121.600 Y102.475 E18.40119
G1 X113.494 Y110.580 E19.79181
G1 X113.576 Y110.666 E19.80617
G1 X113.925 Y111.182 E19.88168
G1 X121.600 Y103.506 E21.19845
G1 X121.600 Y104.538 E21.32360
G1 X114.274 Y111.864 E22.58049
G1 X114.393 Y112.128 E22.61554
G1 X114.527 Y112.643 E22.68013
G1 X121.600 Y105.570 E23.89360
G1 X121.600 Y106.601 E24.01875
G1 X114.656 Y113.545 E25.21008
G1 X114.676 Y113.778 E25.23836
G1 X114.600 Y114.633 E25.34257
G1 X121.600 Y107.633 E26.54355
G1 X121.600 Y108.665 E26.66870
G1 X113.996 Y116.269 E27.97330
G1 E25.97330 F2400.00000
G92 E0
G1 X121.044 Y121.600 F7800.000
G1 E2.00000 F2400.00000
G1 F1800
G1 X121.600 Y121.044 E2.09532
G1 X121.600 Y120.013 E2.22047
G1 X120.013 Y121.600 E2.49279
G1 X118.981 Y121.600 E2.61794
G1 X121.600 Y118.981 E3.06724
G1 X121.600 Y117.949 E3.19239
G1 X117.949 Y121.600 E3.81868
G1 X116.918 Y121.600 E3.94382
G1 X121.600 Y116.918 E4.74710
G1 X121.600 Y115.886 E4.87225
G1 X115.886 Y121.600 E5.85252
G1 X114.854 Y121.600 E5.97767
G1 X121.600 Y114.854 E7.13492
G1 X121.600 Y113.823 E7.26007
G1 X113.823 Y121.600 E8.59431
G1 X112.791 Y121.600 E8.71946
G1 X121.600 Y112.791 E10.23070
G1 X121.600 Y111.760 E10.35584
G1 X111.760 Y121.600 E12.04406
G1 X110.728 Y121.600 E12.16921
G1 X121.600 Y110.728 E14.03442
G1 X121.600 Y109.696 E14.15957
G1 X109.696 Y121.600 E16.20177
G1 X108.665 Y121.600 E16.32692
G1 X112.773 Y117.491 E17.03176
G1 X112.125 Y117.818 E17.11984
G1 X111.321 Y118.064 E17.22176
G1 X111.146 Y118.087 E17.24320
G1 X107.633 Y121.600 E17.84590
G1 X106.601 Y121.600 E17.97105
G1 X110.049 Y118.152 E18.56249
G1 X109.632 Y118.135 E18.61313
G1 X109.146 Y118.023 E18.67356
G1 X105.570 Y121.600 E19.28714
G1 X104.538 Y121.600 E19.41229
G1 X108.365 Y117.773 E20.06888
G1 X108.048 Y117.645 E20.11038
G1 X107.685 Y117.422 E20.16210
G1 X103.506 Y121.600 E20.87892
G1 X102.475 Y121.600 E21.00407
G1 X107.086 Y116.988 E21.79524
G1 X106.702 Y116.650 E21.85742
G1 X106.564 Y116.479 E21.88401
G1 X101.443 Y121.600 E22.76254
G1 X100.412 Y121.600 E22.88769
G1 X106.117 Y115.894 E23.86654
G1 X105.752 Y115.228 E23.95873
G1 X99.380 Y121.600 E25.05192
G1 X98.400 Y121.600 E25.17077
G1 X98.400 Y121.548 E25.17707
G1 X105.483 Y114.465 E26.39226
G1 X105.342 Y113.574 E26.50165
G1 X98.400 Y120.516 E27.69265
G1 X98.400 Y119.485 E27.81780
G1 X105.397 Y112.487 E29.01825
G1 X105.501 Y111.926 E29.08755
G1 X105.764 Y111.182 E29.18325
G1 X105.882 Y110.971 E29.21250
G1 X98.400 Y118.453 E30.49605
G1 X98.400 Y117.421 E30.62120
G1 X106.952 Y108.870 E32.08833
G1 X106.702 Y108.650 E32.12875
G1 X106.451 Y108.339 E32.17718
G1 X98.400 Y116.390 E33.55837
G1 X98.400 Y115.358 E33.68352
G1 X106.026 Y107.732 E34.99188
G1 X105.765 Y107.264 E35.05695
G1 X105.686 Y107.041 E35.08564
G1 X98.400 Y114.327 E36.33557
G1 X98.400 Y113.295 E36.46072
G1 X105.446 Y106.249 E37.66956
G1 X105.342 Y105.642 E37.74421
G1 X105.342 Y105.321 E37.78317
G1 X98.400 Y112.263 E38.97417
G1 X98.400 Y111.232 E39.09932
G1 X105.448 Y104.183 E40.30852
G1 X105.484 Y103.974 E40.33428
G1 X105.764 Y103.182 E40.43620
G1 X106.174 Y102.449 E40.53812
G1 X106.267 Y102.333 E40.55614
G1 X98.400 Y110.200 E41.90581
G1 X98.400 Y109.168 E42.03096
G1 X110.304 Y97.265 E44.07317
G1 X109.272 Y97.265 E44.19832
G1 X98.400 Y108.137 E46.06353
G1 X98.400 Y107.105 E46.18868
G1 X108.241 Y97.265 E47.87691
G1 X107.209 Y97.265 E48.00206
G1 X98.400 Y106.073 E49.51330
G1 X98.400 Y105.042 E49.63845
G1 X106.177 Y97.265 E50.97271
G1 X105.146 Y97.265 E51.09786
G1 X98.400 Y104.010 E52.25512
G1 X98.400 Y102.979 E52.38027
G1 X104.114 Y97.265 E53.36055
G1 X103.082 Y97.265 E53.48570
G1 X98.400 Y101.947 E54.28898
G1 X98.400 Y100.915 E54.41413
G1 X102.051 Y97.265 E55.04043
G1 X101.019 Y97.265 E55.16558
G1 X98.400 Y99.884 E55.61489
G1 X98.400 Y98.852 E55.74004
G1 X99.987 Y97.265 E56.01236
G1 X98.956 Y97.265 E56.13751
G1 X98.400 Y97.820 E56.23281
G1 Z0.400 F7800.000
G1 E54.23281 F2400.00000
G92 E0
G1 X93.866 Y98.366 F7800.000
G1 E2.00000 F2400.00000
G1 F1800
G1 X94.196 Y98.366 E2.01944
G1 X94.526 Y97.794 E2.05831
